X: 39591
T: Teelin, The
R: reel
M: 4/4
K: Amixolydian
|:A2eg fded|cdef gf g2|A2eg fdfa|1 gedg eAAG:|2 gedg eA ~A2||
|:a2eg fdgf|eA ~A2 cdef|a2eg fdfa|1 gedg eA ~A2:|2 gedg eAAG||

